X:580
T:
S:Uppt. efter Karl Odin Kaupe i Fröjel.
R:polka
O:Gotland, Fröjel
M:2/4
L:1/16
K:F
ABcd c2f2|ABcd c2a2|c'2e2 e3c|a2f2 f3A|ABcd c2f2|ABcd c2a2|c'2ba b2ag|f2f2
f2 z2::Le'4 Ld'4|c'=bc'd' c'2a2|c'bg2 e'3b|bag2 a2f'2|Le'4
Ld'4|c'=bc'd' c'2a2|c'ba2 bag2|f2f2 f2 z2:|
K:Bb
|:dddd e2d2|c2G2 Lc3B|AGAB cdef|g2f2 Ld3F|dddd e2d2|c2G2 c3B|A2gf F2dc|B2B2
B2 z2::dfgf cfgf|B2FF B2g2|A2FF A2g2|f2Bd f2b2|dfgf cfgf|B2FF B2g2|fede
G2A2|B2bb b2 z2:|

